build-source/logos/radiofrance.default.svg

<?xml version="1.0" encoding="UTF-8" standalone="no"?>
<!-- Created with Inkscape (http://www.inkscape.org/) -->
<svg
   xmlns:svg="http://www.w3.org/2000/svg"
   xmlns="http://www.w3.org/2000/svg"
   version="1.0"
   width="602.36218"
   height="602.36218"
   id="svg2407">
  <defs
     id="defs2409" />
  <g
     id="g7110">
    <g
       id="g8893">
      <path
         d="M 17.716527,584.6513 L 493.20539,584.6513 L 493.20539,109.16248 L 17.716527,109.16248 L 17.716527,584.6513 z"
         id="path5844"
         style="fill:#000000;fill-opacity:1;fill-rule:nonzero;stroke:none" />
      <path
         d="M 109.18842,462.06895 L 88.069273,463.78131 L 88.64006,505.44881 C 88.64006,505.44881 113.78899,506.78432 119.74799,507.16117 C 125.68429,507.52647 131.83723,507.6863 133.73228,514.8668 C 135.78724,522.65223 126.84856,528.28028 123.7435,528.28031 C 133.12713,528.28031 130.96959,528.28029 138.01319,528.28031 C 143.74391,527.22994 150.2508,520.28929 149.42894,510.01511 C 148.34446,496.43024 137.97892,493.17685 126.88283,493.17687 L 130.38998,470.98459 L 109.18842,462.06895 z M 59.529891,501.45329 C 55.728326,506.05386 51.927,513.26849 54.107408,521.14547 C 60.625803,543.15516 95.580838,552.81276 110.32999,553.39497 L 108.61763,527.70952 C 108.61764,527.70953 84.758704,530.70045 72.658007,518.00613 C 67.532334,512.65202 68.514207,507.19553 72.372613,502.30947 C 67.852075,502.11539 62.566372,501.57887 59.529891,501.45329 z"
         id="path5846"
         style="fill:#ffffff;fill-opacity:1;fill-rule:nonzero;stroke:none" />
      <path
         d="M 109.15683,493.1997 L 584.64566,493.1997 L 584.64566,17.71088 L 109.15683,17.71088 L 109.15683,493.1997 z"
         id="path5850"
         style="fill:#223f9a;fill-opacity:1;fill-rule:nonzero;stroke:none" />
      <path
         d="M 416.875,199.3125 L 416.875,229.375 L 448,229.375 L 448,199.3125 L 416.875,199.3125 z M 370.53125,201.4375 L 370.53125,250.5625 C 363.754,240.61373 355.69755,237 343.625,237 C 312.2873,237 304.24999,268.57002 304.25,294.1875 C 304.25,319.1823 312.72893,348.8125 343,348.8125 C 356.7716,348.8125 365.63476,341.39945 371.5625,329.96875 L 372,329.96875 L 372,346.6875 L 401.65625,346.6875 L 401.65625,201.4375 L 370.53125,201.4375 z M 183.78125,236.9375 C 171.08313,236.68257 165.05032,248.17649 161.96875,259.25 L 161.53125,259.25 L 161.53125,239.125 L 132.53125,239.125 L 132.53125,346.6875 L 163.65625,346.6875 L 163.65625,305.625 C 163.65625,286.56753 166.63281,267.29765 190.34375,268.5625 L 190.34375,237.4375 L 185.03125,237 C 184.60767,236.96696 184.19087,236.94572 183.78125,236.9375 z M 248.5625,237 C 225.89931,237 200.49346,244.63568 197.3125,270.6875 L 226.75,273.4375 C 226.75,262.85616 235.42622,257.75001 245.375,257.75 C 250.0379,257.75 255.33754,259.23824 258.09375,262.84375 C 261.27472,266.86494 260.84374,272.37794 260.84375,277.03125 L 260.84375,279.5625 C 247.71401,280.82734 230.56148,281.69021 218.28125,286.34375 C 204.09434,291.63899 194.15625,302.42657 194.15625,318.3125 C 194.15625,338.63481 208.97378,348.8125 228.03125,348.8125 C 244.12486,348.8125 253.42091,342.67357 262.3125,329.96875 C 262.0954,335.47157 262.53821,341.18453 263.8125,346.6875 L 294.71875,346.6875 C 293.02916,341.39219 292.59374,336.09672 292.59375,330.59375 L 292.59375,280.40625 C 292.59375,267.49368 293.67164,255.64136 282.65625,246.75 C 273.98175,239.54799 259.56845,237 248.5625,237 z M 510.6875,237 C 477.86787,237 459.65624,261.3498 459.65625,292.6875 C 459.65625,323.81754 477.65077,348.8125 510.6875,348.8125 C 542.44051,348.8125 562.56252,324.44583 562.5625,293.75 C 562.5625,261.98754 544.35664,237 510.6875,237 z M 416.875,239.125 L 416.875,346.6875 L 448,346.6875 L 448,239.125 L 416.875,239.125 z M 510.90625,257.5625 C 518.10825,257.5625 523.17965,260.28689 525.71875,267.28125 C 528.68261,275.32341 529.09377,285.50182 529.09375,293.96875 C 529.09375,306.88132 528.26304,328.06249 510.6875,328.0625 C 492.89486,328.0625 493.12499,301.81133 493.125,289.53125 C 493.125,277.25102 494.18021,257.56249 510.90625,257.5625 z M 355.46875,258.8125 C 369.65566,258.8125 370.53126,276.59521 370.53125,286.96875 L 370.53125,301.8125 C 370.53125,307.10797 370.28911,312.81686 367.75,317.6875 C 365.21089,322.55798 359.93883,326.37498 354.21875,326.375 C 338.767,326.375 337.06251,306.67899 337.0625,295.03125 C 337.0625,282.11838 337.68554,258.8125 355.46875,258.8125 z M 260.84375,295.25 L 260.84375,299.46875 C 260.84375,307.09552 261.03956,313.4415 256.59375,320.21875 C 252.99746,325.72172 247.28999,329.12501 240.9375,329.125 C 232.25356,329.125 227.15625,323.40434 227.15625,314.9375 C 227.15625,299.26865 248.98827,296.51482 260.84375,295.25 z M 169.09375,357.4375 C 160.34374,357.4375 150.95908,360.85565 145.9375,368.3125 C 141.89758,374.45734 142.21875,383.02968 142.21875,390.15625 L 132.65625,390.15625 L 132.65625,408.625 L 142.21875,408.625 L 142.21875,470.3125 L 166.03125,470.3125 L 166.03125,408.625 L 180.59375,408.625 L 180.59375,390.15625 L 166.03125,390.15625 L 166.03125,388.375 C 166.03125,381.40904 166.01711,376.40625 173.625,376.40625 C 177.35344,376.40625 179.12897,376.38418 182.6875,376.875 L 182.6875,358.59375 C 177.66591,357.62152 171.0382,357.43751 169.09375,357.4375 z M 225.84375,386.40625 C 216.76106,386.76595 212.33672,395.24322 210.0625,403.4375 L 209.75,403.4375 L 209.75,388.0625 L 187.5625,388.0625 L 187.5625,470.3125 L 211.34375,470.3125 L 211.34375,438.90625 C 211.34375,424.33248 213.64879,409.59036 231.78125,410.5625 L 231.78125,386.75 L 227.71875,386.4375 C 227.07099,386.38677 226.44926,386.38227 225.84375,386.40625 z M 276.3125,386.4375 C 258.98237,386.4375 239.5196,392.27107 237.09375,412.1875 L 259.625,414.28125 C 259.625,406.18253 266.2671,402.31249 273.875,402.3125 C 277.44297,402.3125 281.48883,403.43122 283.59375,406.1875 C 286.01959,409.26441 285.68749,413.47272 285.6875,417.03125 L 285.6875,419 C 275.64433,419.97223 262.53868,420.59771 253.15625,424.15625 C 242.30133,428.20561 234.6875,436.47692 234.6875,448.625 C 234.6875,464.17114 246.01983,471.93751 260.59375,471.9375 C 272.89286,471.9375 280.00692,467.2535 286.8125,457.53125 C 286.65203,461.74107 286.99654,466.10269 287.96875,470.3125 L 311.59375,470.3125 C 310.3006,466.26314 309.96874,462.24092 309.96875,458.03125 L 309.96875,419.625 C 309.96875,409.7423 310.79463,400.68056 302.375,393.875 C 295.72989,388.37203 284.73214,386.43751 276.3125,386.4375 z M 368.59375,386.4375 C 356.61557,386.4375 349.82043,391.47536 344.96875,402 L 344.625,402 L 344.625,388.0625 L 322.125,388.0625 L 322.125,470.3125 L 345.9375,470.3125 L 345.9375,426.125 C 345.9375,420.94273 346.26165,416.23191 348.6875,411.53125 C 350.63195,407.80282 354.50893,405.37499 358.71875,405.375 C 370.70636,405.375 369.56251,417.70512 369.5625,426.125 L 369.5625,470.3125 L 393.375,470.3125 L 393.375,419.46875 C 393.375,412.01173 393.3745,401.65412 388.84375,395.5 C 383.98263,388.85497 376.37155,386.43751 368.59375,386.4375 z M 442.28125,386.4375 C 416.37102,386.4375 401.15626,404.74121 401.15625,430 C 401.15625,454.28694 415.8745,471.93751 440.8125,471.9375 C 460.8894,471.9375 476.27432,459.8136 478.21875,439.40625 L 455.5625,438.09375 C 454.75074,445.70149 450.54463,452.34375 442.125,452.34375 C 428.5233,452.34375 428.34375,438.10566 428.34375,428.0625 C 428.34375,417.53779 429.97346,404.56251 443.09375,404.5625 C 451.67386,404.5625 455.56249,411.85557 455.5625,419.3125 L 478.21875,418 C 476.59523,398.73487 461.39537,386.43751 442.28125,386.4375 z M 523.25,386.4375 C 497.6607,386.4375 483.24999,406.02579 483.25,430.3125 C 483.25,454.76889 499.28916,471.93751 523.90625,471.9375 C 551.76093,471.9375 561.31251,447.64311 561.3125,443.59375 L 539.28125,441.96875 C 539.28125,449.586 531.9839,454.93749 524.6875,454.9375 C 514.32341,454.9375 508.84374,446.99404 508.84375,437.28125 L 509,433.25 L 561.78125,433.25 C 561.94171,422.07423 560.18057,410.39203 553.375,401 C 546.56943,391.60828 534.74677,386.43751 523.25,386.4375 z M 524.21875,402 C 534.58284,402 537.48736,410.2553 537.96875,419.15625 L 508.84375,419.15625 C 509.65551,409.76438 513.69418,401.99999 524.21875,402 z M 285.6875,430.96875 L 285.6875,434.21875 C 285.6875,440.0428 285.86681,444.88061 282.46875,450.0625 C 279.71254,454.27255 275.32986,456.875 270.46875,456.875 C 263.83308,456.875 259.93751,452.51582 259.9375,446.03125 C 259.9375,434.05285 276.61655,431.94089 285.6875,430.96875 z"
         id="path7696"
         style="fill:#ffffff;fill-opacity:1;fill-rule:nonzero;stroke:none" />
    </g>
  </g>
</svg>

<svg xmlns="http://www.w3.org/2000/svg" viewBox="0 0 602.36 602.36"><path d="m17.717 584.65h475.49v-475.49h-475.49v475.49"/><path d="m109.19 462.07l-21.12 1.712.571 41.667c0 0 25.15 1.336 31.11 1.712 5.936.365 12.09.525 13.984 7.706 2.055 7.785-6.884 13.413-9.989 13.414 9.384 0 7.226 0 14.27 0 5.731-1.05 12.238-7.991 11.416-18.265-1.084-13.585-11.45-16.838-22.546-16.838l3.507-22.19-21.2-8.916m-49.659 39.38c-3.802 4.601-7.603 11.815-5.422 19.692 6.518 22.01 41.473 31.667 56.22 32.25l-1.712-25.685c0 0-23.859 2.991-35.96-9.703-5.126-5.354-4.144-10.811-.285-15.697-4.521-.194-9.806-.731-12.843-.856" fill="#fff"/><path d="m109.16 493.2h475.49v-475.49h-475.49v475.49" fill="#223f9a"/><path d="m416.87 199.31v30.06h31.12v-30.06h-31.12m-46.34 2.125v49.12c-6.777-9.949-14.834-13.563-26.906-13.563-31.34 0-39.38 31.57-39.37 57.19 0 24.995 8.479 54.625 38.75 54.625 13.772 0 22.635-7.413 28.563-18.844h.438v16.719h29.656v-145.25h-31.12m-186.75 35.5c-12.698-.255-18.731 11.239-21.813 22.313h-.438v-20.12h-29v107.56h31.12v-41.06c0-19.06 2.977-38.33 26.688-37.06v-31.12l-5.313-.438c-.424-.033-.84-.054-1.25-.063m64.781.063c-22.663 0-48.07 7.636-51.25 33.688l29.438 2.75c0-10.581 8.676-15.687 18.625-15.688 4.663 0 9.963 1.488 12.719 5.094 3.181 4.02 2.75 9.534 2.75 14.188v2.531c-13.13 1.265-30.28 2.128-42.563 6.781-14.187 5.295-24.12 16.08-24.12 31.969 0 20.322 14.818 30.5 33.875 30.5 16.09 0 25.39-6.139 34.28-18.844-.217 5.503.226 11.216 1.5 16.719h30.906c-1.69-5.295-2.125-10.591-2.125-16.09v-50.19c0-12.913 1.078-24.765-9.938-33.656-8.675-7.202-23.09-9.75-34.09-9.75m262.12 0c-32.82 0-51.03 24.35-51.03 55.688 0 31.13 17.995 56.12 51.03 56.12 31.753 0 51.875-24.367 51.875-55.06 0-31.762-18.206-56.75-51.875-56.75m-93.81 2.125v107.56h31.12v-107.56h-31.12m94.03 18.438c7.202 0 12.273 2.724 14.813 9.719 2.964 8.04 3.375 18.221 3.375 26.688 0 12.913-.831 34.09-18.406 34.09-17.793 0-17.563-26.25-17.563-38.531 0-12.28 1.055-31.969 17.781-31.969m-155.44 1.25c14.187 0 15.06 17.783 15.06 28.16v14.844c0 5.295-.242 11-2.781 15.875-2.539 4.87-7.811 8.687-13.531 8.688-15.452 0-17.16-19.696-17.16-31.344 0-12.913.623-36.22 18.406-36.22m-94.62 36.438v4.219c0 7.627.196 13.973-4.25 20.75-3.596 5.503-9.304 8.906-15.656 8.906-8.684 0-13.781-5.721-13.781-14.188 0-15.669 21.832-18.423 33.688-19.688m-91.75 62.19c-8.75 0-18.13 3.418-23.16 10.875-4.04 6.145-3.719 14.717-3.719 21.844h-9.563v18.469h9.563v61.688h23.813v-61.688h14.563v-18.469h-14.563v-1.781c0-6.966-.014-11.969 7.594-11.969 3.728 0 5.504-.022 9.06.469v-18.281c-5.02-.972-11.649-1.156-13.594-1.156m56.75 28.969c-9.08.36-13.507 8.837-15.781 17.03h-.313v-15.375h-22.19v82.25h23.781v-31.406c0-14.574 2.305-29.32 20.438-28.344v-23.813l-4.063-.313c-.648-.051-1.269-.055-1.875-.031m50.47.031c-17.33 0-36.793 5.834-39.22 25.75l22.531 2.094c0-8.099 6.642-11.969 14.25-11.969 3.568 0 7.614 1.119 9.719 3.875 2.426 3.077 2.094 7.285 2.094 10.844v1.969c-10.04.972-23.15 1.598-32.531 5.156-10.855 4.049-18.469 12.321-18.469 24.469 0 15.546 11.332 23.313 25.906 23.313 12.299 0 19.413-4.684 26.22-14.406-.16 4.21.184 8.571 1.156 12.781h23.625c-1.293-4.049-1.625-8.07-1.625-12.281v-38.41c0-9.883.826-18.944-7.594-25.75-6.645-5.503-17.643-7.437-26.06-7.438m92.28 0c-11.978 0-18.773 5.04-23.625 15.563h-.344v-13.938h-22.5v82.25h23.813v-44.19c0-5.182.324-9.893 2.75-14.594 1.944-3.728 5.821-6.156 10.03-6.156 11.988 0 10.844 12.33 10.844 20.75v44.19h23.813v-50.844c0-7.457 0-17.815-4.531-23.969-4.861-6.645-12.472-9.06-20.25-9.06m73.69 0c-25.91 0-41.12 18.304-41.12 43.563 0 24.287 14.718 41.938 39.656 41.938 20.08 0 35.462-12.12 37.41-32.531l-22.656-1.313c-.812 7.608-5.02 14.25-13.438 14.25-13.602 0-13.781-14.238-13.781-24.281 0-10.525 1.63-23.5 14.75-23.5 8.58 0 12.469 7.293 12.469 14.75l22.656-1.313c-1.624-19.265-16.823-31.562-35.938-31.563m80.969 0c-25.589 0-40 19.588-40 43.875 0 24.456 16.04 41.625 40.656 41.625 27.855 0 37.41-24.294 37.41-28.344l-22.03-1.625c0 7.617-7.297 12.969-14.594 12.969-10.364 0-15.844-7.943-15.844-17.656l.156-4.03h52.781c.16-11.176-1.601-22.858-8.406-32.25-6.806-9.392-18.628-14.562-30.12-14.563m.969 15.563c10.364 0 13.269 8.255 13.75 17.16h-29.12c.812-9.392 4.85-17.16 15.375-17.16m-238.53 28.969v3.25c0 5.824.179 10.662-3.219 15.844-2.756 4.21-7.139 6.813-12 6.813-6.636 0-10.531-4.359-10.531-10.844 0-11.978 16.679-14.09 25.75-15.06" fill="#fff"/></svg>
